X: 37894
T: South Bend, The
R: reel
M: 4/4
K: Gmajor
DG~G2 A2 cB|Ae~e2 dBAB|~g2ga (3bag fd|egfd eB~B2|
DG~G2 A2 cB|Ae~e2 dBAB|~g2ga (3bag eg|1 dBAB ~G2GE:|2 dBAB G2||
~g2gf eB~B2|ABcd BG~G2|DG~G2 A2 cB|Ae~e2 dBAB|
~g2gf eB~B2|ABcd BG~G2|~g2ga (3bag eg|1 dBAB G2:|2 dBAB ~G2GE||

